X:0280
T:When she came ben she bobed.
M:6/8
L:1/8
Q:3/8=72
I: || ::
Z:Jack Campin * www.campin.me.uk * 2009
K:A Dorian
E|A>BA Bcd  |BGG  G2B|A>BA aba|gee e2f|g>ag gfe|dec Bcd|e2e e>(=fe/d/)|c<AA A2||
e|a2a  a>bc'|bgg Tg2e|a2a  aba|gee e2f|g>ag gfe|dgc Bcd|e2e e>(=fe/d/)|c<AA A2:|
<end>
<start>
